X:1
T:Sonate
T:Sonate
T:Op. 102 Nr. 1
T:Ludwig van Beethoven
T:1815
T:1815
T:1815
T:1815
T:1815
T:1815
T:1815
T:1815
T:1815
T:1815
T:1815
T:1815
T:1815
T:1815
T:1815
T:1815
C:Ludwig van Beethoven
Z:1815
%%score ( 1 2 ) { ( 3 6 7 ) | ( 4 5 8 ) }
L:1/8
Q:1/8=88
M:6/8
K:C
V:1 tenor nm="Violoncello"
V:2 tenor 
V:3 treble nm="Piano"
V:6 treble 
V:7 treble 
V:4 bass 
V:5 bass 
V:8 bass 
V:1
!p!"^teneramente""^Andante" (CB,A, G,2 A,/B,/ | C/D/E/C/.G/)G/ (GFD) | z6 | %3
 z2 z (G,/A,/B,/G,/.D/)D/ | D2 z[K:bass] (B,,/C,/D,/B,,/!fermata!A,/)(A,/ | G,F,E, D,2 E,/F,/ | %6
[K:tenor] G,/A,/_B,/G,/.D/)D/ (DCA,) |[K:bass] (D,C,=B,,)!<(! (B,, E,2)!<)! | %8
!>(! (E,A,>!>)!F)[K:tenor] (EFE/C/ | B,/C/D/B,/.F/)F/ F2 !fermata!z/ z/ | z z (G- G2 F | %11
 EDC) (C F2) | (F>^FG/=F/)!<(! (F>Ec)!<)! |!mf!!>(! (c>DA)!>)! (A/G/B,/D/C) | %14
 z2 z (E/D/^F,/A,/G,) | z6 | (CB,A, G,2 A,/B,/) |!<(! (C/D/E/C/.G/)G/!<)!!>(! (GF(3D/!>)!B,/G,/) | %18
 !trill(!TG,6- |"_cresc." G,2- !trill)!G,/A,/8B,/8C/8D/8!p! (E/F/G/E/.c/)c/ | %20
 (G2 E)!<(! (E2!<)!!>(! C/D/!>)! | C/)(C/A,/F,/D,/G,/)!<(! (E,/B,/C/D/E/F/!<)! | %22
!>(! G/^G/ A!>)!B, C) z/4 (B,/4C/4B,/4 C/4D/4E/4D/4 | %23
!>(! C/4E/4B,/4C/4 A,/4F,/4D,/4F,/4 D,/4B,/4D,/4B,/4)!>)!"^sempre tenuto" !fermata![D,B,]2 x x2 x/4 x/4 x/4 x x2 x [E,C]- | %24
 [E,C]2 (G, | [E,C]3- | [E,C]2)[K:bass] (G,, C,,2) z |"^pizz." C,,2 z !fermata!C,, | %28
[M:2/2][Q:1/4=144]"^Allegro"!ff!"^arco" .E,2 |:"^vivace" A,3[K:tenor] B, C3 D | E4- Ez/D/Cz/B,/ | %31
 A,z/F,/E,z/D,/[K:bass] C,z/B,,/A,,z/B,,/ |{B,,C,} (!>!D,4 !>!F,4) | E,8- | %34
 (E,B,.C)z/^G,/ (G,/A,/) z A,2- | A,z/(^C/D)z/B,/"_cresc." ^G,E,,F,,F, |!mf! .E,2 .E,,2 z2 E,2 | %37
[K:tenor]!f! A,3 B, C3 D | E4- Ez/D/Cz/B,/ | A,z/F,/E,z/D,/[K:bass] C,z/B,,/A,,z/C,/ | %40
 ^F,,2 z2 z4 |!p! (D,2 D2 C2 A,2) | G,6 B,,2 | (B,,2 B,2 A,2 ^F,2) | E,6[K:tenor] E2 | %45
!<(! (=F6 ED)!<)! |!>(! (DCB,).A, (A,G,^F,).E,!>)! | %47
[K:bass]"_cresc." (3B,,A,B, (3CB,A, (3G,^F,G, (3A,G,F, | %48
[K:tenor] (6:4:6E,^D,E,^F,E,D, (6:4:6E,D,E,F,E,D, | (6:4:6^F,E,F,G,F,E, (6:4:6F,E,F,G,F,E, | %50
 (6:4:6G,^F,G,A,G,F, (6:4:6G,F,G,A,G,F, | (3G,E,E (3EEE (3EEE (3EEE | (3(G^F).E (3EEE (3EEE (3EEE | %53
 (3(G^F).E (3EEE"_non legato" (3EFG (3GA^A |"_dimin." (B4 cBc=A | G2 ^F2 E2 ^D2) | %56
[K:bass]"_cresc." (B,6 C2) | z2 C2- (C3/2A,/4^F,/4) .^D,2 | z2!f! E2- (E3/2B,/4G,/4) .E,2 | %59
 z2 B,2- (B,3/2A,/4^F,/4) .B,,.A,, | G,,2 z2 G,,4- | G,,4 G,4- | G,4[K:tenor]"_dimin." G4- | G8- | %64
 (G8 |!<(! ^G4!<)!!>(! A4!>)! |"_dimin." =G2 ^F2 E2 ^D2 |!f! E2) z2 z4 | %68
[K:bass]"^risoluto" A,,3 A, C3 ^F, | (A,2 B,,4) (B,,^C,/^D,/) | .E,2 z2 z2 (B,,^C,/^D,/) | %71
 .E,2[K:tenor] .E2 .G2 .B2 | .G2 .E2 .B,2[K:bass] (B,,^C,/^D,/) | E,2[K:tenor] E>E G>G B>B | %74
[K:bass] E,2 z2[K:tenor] B, z ^D z | ^D z E z E, z z2 |1!p! ^F, z G, z E, z!ff! E,2 :|2 %77
!p! ^F, z G, z E, z z2 ||[K:bass]!pp! B,, z C, z C, z[K:tenor]!f! G,2 | C3 D E3 F | %80
 G4- Gz/F/Ez/D/ | Cz/A,/G,z/F,/ E,z/D,/C,z/E,/ | ^F,4- F,z/D/Cz/B,/ | A,z/G,/^F,z/A,/ C,2 z2 | %84
 z4 z3/2 _E/Dz/C/ | _B,z/A,/G,z/B,/ G,4 | _B,4 ^C4 | =E4 ^C,4 | E,4 A,4 | D4 D4 | F4 A,4 | %91
"_dimin." _B,8- |!pp! B,8- | B,8- | B,8- | (_B,4"_cresc." A,4) | D3 E F3 G |!f! A4- Az/G/Fz/E/ | %98
 Dz/_B,/A,z/G,/ F,z/E,/D,z/F,/ |[K:bass] ^G,,2 z2 z3/2[K:tenor] C/=B,z/E/ | A,3 B, C3 D | %101
 E4- Ez/D/Cz/B,/ | A,z/F,/E,z/D,/[K:bass] C,z/B,,/A,,z/C/ |!>(! (D,4 F,4)!>)! | E,8- | %105
 E,!p!B, (3(B,C).^G, (G,/A,/) z A,2- | A,"_cresc."^C (3(CD).B, ^G,E,F,F,, | %107
!mf! E,, z E,, z[K:tenor] z"_poco ritard.""^dim." E (3(EF).B, | (B,/=C/) z C,2 z4 | %109
!p![Q:1/4=160]"^a tempo" (C,2 C2 _B,2 G,2) | F,6 z2 | z2 (C4 E2 | F3 E/D/ C2 A,2) | %113
 (A,2 A2 G2 E2) | D6 z2 | z4 z2 A,2 | D2"^non legato" (3FD_B, A,2 (3C=B,A, | %117
"_cresc." (3EDE (3FED (3CB,C (3DCB, | (6:4:6A,^G,A,B,A,G, (6:4:6A,G,A,B,A,G, | %119
 (6:4:6B,A,B,CB,A, (6:4:6B,A,B,CB,A, | (6:4:6CB,CDCB, (6:4:6CB,CDCB, | (3CA,A (3AAA (3AAA (3AAA | %122
 (3(A^G).A (3AAA (3AAA (3AAA | (3(A^G).A (3AAA[K:treble]"_non legato" (3ABc (3cd^d | %124
"_dimin." (e4 fef=d | c2 B2 A2 ^G2) |[K:tenor]"_cresc." (E6 F2) | z2 (F2- F3/2D/4B,/4) .^G,2 | %128
 z2 (E2- E3/2C/4A,/4) .E,2 | z2 (E2- E3/2D/4B,/4) .E,.D, | C,2 z2 C,4- | C,4 C4- | %132
 C4"_dimin." C4- | C8- | C8 |!<(! (^C4!<)!!>(! D4!>)! |"_cresc." =C2 B,2 A,2 ^G,2) |!f! A,2 z2 z4 | %138
[K:bass]"^risoluto" D,,3[K:tenor] D F3 B, | (D2 E,4) (E,^F,/^G,/) | %140
 A,2 z2 z2[K:bass] (E,,^F,,/^G,,/) | .A,,2 .A,2 .C2 .E2 | .C2 .A,2 .E,2 (E,,^F,,/^G,,/) | %143
 .A,,2 A,>A, C>C E>E | A,2 z2[K:tenor] .E2 .^G2 | ^G z A z A, z z2 |!p! B, z C z A, z z2 | %147
[K:bass] z4!f!!>(! A,,4-!>)! |!p! (A,,3 B,, ^C,3 D,) | E,8 | (A,,3 ^C, D,3 E,) | F,8 | %152
"_cresc." (_B,,3 ^C, D,3 _E,) | F,6!f! F,>=E, | D,z/C,/B,,z/A,,/ E, z E,, z | .E2 .E,2 .A,,2 z2 | %156
 !fermata!z8 |] %157
[M:4/4][Q:1/4=28]"^Adagio"!p! G, G,2 G, G,2- G,/G,,/- (G,,/8A,,/8G,,/8^F,,/8G,,/8A,,/8G,,/8=F,,/8) | %158
 (E,, F,,2 E,,) | E,,2- E,,/C,/- (C,/8D,/8C,/8B,,/8C,/8D,/8C,/8_B,,/8) | %160
 .A,,/A,/- A,/4(E/4^C/4^G,/4 A,/4^D,/4E,/4^B,,/4^C,/4^G,,/4A,,/4E,,/4)"_cresc." (^C,,2 =D,,2) | %161
!f! E,,2!>(! F,,2!>)! z!p!"_cresc." (D,,^C,,_B,, |!f! ^F,,)_E,!>(!(D,!>)!!p!G,,) | %163
!p!"_cresc." =B,,2 [C,,C,]2 | %164
!f! [D,,D,]2!>(! [_E,,_E,]2-!>)!"_dimin." ([E,,E,][C,,C,] [C,,_A,,]2) | %165
!p! G,,[K:tenor]D- (D/B,/G/>^F/) (F=E/C/ A,/D/C/A,/) | (G,3 G-) (G=F/E/) !trill(!TB,7/4D/4 | %167
 F z z/"_dim." (G/F/D/ [D,B,]/)[K:bass] (G,,/F,,/D,,/ ^C,,/4D,,/4G,,/4G,/4[K:tenor] G/)G/ || %168
[M:6/8][Q:1/4=138]"^Tempo d'Andante"!pp! G6 | (G2 E)"_cresc." (E/F/G/F/.c/)c/ | %170
 (cGE)"_dimin."!>(! (EF/)!>)! z/ (D/G/) | %171
 (G2 F/E/)"_cresc."{F} (E/4D/4E/4F/4G/4F/4G/4E/4 c/4)c/4c/4c/4 | %172
 (cG F/E/)"_dimin."!>(! (EF/)!>)! z/ (D |!p! CB,A, G,2 A,/B,/) | %174
{D} (C/4B,/4C/4D/4{F} E/4D/4E/4C/4 .G/)G/ (GF!<(!TD)!<)!({CD)} || %175
[M:2/4][Q:1/4=120]"^Allegro vivace"!p! E z z c- | !fermata!c4 | (GA/B/ c) z | !fermata!z3 z | %179
 z2 z!p! c- | c3 F- | F2- F/G,/A,/B,/ | C/B,/C/D/ E/F/G/G/ | (3(GcB (3ced | (3edc (3BcG) | %185
!<(! (_B/A/).G (G/F/).E!<)! |!p! (E2 D)(E/F/ | GA/=B/c) z | (EF/G/A) z | (DE/F/) .G.F | .E.C.G, z | %191
[K:bass] C,,4- | C,,3 C,, |!<(! ^C,,C,, D,,(E,,/F,,/)!<)! |!p! (G,,^F,,G,,)[K:tenor]"_cresc." E | %195
 (G/=F/).E (E/D/).C |!f! (C/B,/).B, C[K:bass]!f! (3(G,,/A,,/B,,/) | C,/B,,/C,/G,,/ D,/G,,/E,/G,,/ | %198
 F,/E,/F,/G,,/ G,/F,/E,/D,/ |"_cresc." C,/B,,/C,/G,,/ D,/G,,/E,/G,,/ | F,/G,,/^F,/G,,/ G,^G, | %201
 A, z B,C | D z CB, |"_cresc." A,C,^C,^C | D/D,/E,/^F,/ G,/A,/B,/=C/ |[K:tenor] B, z CD | D z DC | %207
"_cresc." B,B,CD | D^F,G,A, |!p! B,B,B, (A, | B,)B,B,!<(! (C!<)! |!>(! D)!>)!DE z | z2 z C | %213
 B,/A,/B,/G,/ C/D/E/D/ | B,/A,/B,/G,/!<(! E/=F/G/F/!<)! |!>(! F/E/F/D/!>)! E/D/E/C/ | %216
 B,/D/E/D/ A,/D/E/D/ |"_cresc." ^C4 | D2[K:bass] D,,2- |!p! (D,,2 C,,C, | %220
 B,,2)[K:tenor]"_cresc." (G2- | G3 ^C) | DE/^F/ G/A/B/=c/ |[K:treble] .d.B.A.d |!f! .d.B.A.d | %225
 .d.B.A.d | .d.B.A.^f | g[K:bass]G,, z G,,- | G,,.B,,.D,.D,, | .G,,.B,,.D,.D,, | .G,,.B,,.D,.D,, | %231
 .G,,.[G,,G,] z2 | z4 |!p! _E,,4- | E,,4 | [_E,,_B,,]4- | [E,,B,,]4- | ([E,,B,,]2!f! C,/D,/.E,) | %238
 z4 |!p! C,,4- | C,,4 | [C,,G,,]4- | [C,,G,,]4- | ([C,,G,,]2!f! =A,,/=B,,/C,) | z4 |!p! _A,,4- | %246
 A,,4 | [_A,,_E,]4- | [A,,E,]4- | [_A,,_E,]4- | [A,,E,]4- | [A,,E,]4- | %252
 ([A,,E,]F,/G,/"^ten." _A,2 |[K:tenor] F,G,/_A,/ _B,2) |"^non legato" G,/_B,/C/_D/ CB, | %255
 _A,F,[K:bass] (C,=D,/_E,/ | F,2) (D,_E,/F,/ | G,2) =E,/G,/_A,/_B,/ |[K:tenor] C_B, _A,2 | %259
 z2 G,/=B,/C/D/ | _ED C2 | z2 D,/^F,/G,/A,/ | _B,2 (_ED/C/) | (F_E/D/) (DC/=B,/) | %264
 (_ED/C/) (C=B,/=A,/) | (DC/B,/) (B,A,/G,/) | (G,F,/_E,/)[K:bass] C2- | C2 _B,2- | B,2 _A,2- | %269
 A,2 G,2- | G,2 F,2- | F,2 _E,2 | [F,,_D,]4 | [_E,,C,]4 | [=D,,=B,,]4 | [C,,A,,]4 | %276
 [D,,B,,]2 [D,,B,,]2- | [D,,B,,]2 [D,,B,,]2- | [D,,B,,]2"_dimin." [D,,B,,]2- |!pp! [D,,B,,]4 | %280
!p! [E,,C,]3[K:tenor]"_dimin." c- | c3 F- | F2- F/G,/A,/B,/ | C/D/E/F/ GG | (3(GcB (3ced | %285
 (3edc (3BcG) |!<(! (_B/A/).G (G/F/).E!<)! | (E2 D) (E/F/ | GA/=B/ .c) z | (EF/G/ .A) z | %290
 (DE/F/ .G).F | .E.C.G, z |[K:bass] C,,4- | C,,3 C,, |!<(! ^C,,C,, D,,(E,,/F,,/)!<)! | %295
!p! (G,,^F,,G,,)[K:tenor]"_cresc." E | (G/=F/).E (E/D/).C | %297
!f! (C/B,/).B, C[K:bass] (3(G,,/A,,/B,,/) | C,/B,,/C,/G,,/ D,/G,,/E,/G,,/ | %299
 F,/E,/F,/G,,/ G,/F,/E,/D,/ |"_cresc." C,/B,,/C,/G,,/ D,/G,,/E,/G,,/ | F,/G,,/^F,/G,,/ G,^G, | %302
 A, z B,C | D z CB, |"_cresc." A,A,G,F, | E,D,C,E, | F, z CC | C z C,C, |"_cresc." C, z C,,C,, | %309
 C,, (E,2 F,/G,/ |!p! A,).A,.A,(G, | A,)A,A,(C |[K:tenor]!<(! D)GGG-!<)! |!>(! GGG!>)! z | %314
 z2 z!f! G,/A,/ | B,/A,/B,/G,/ C/G,/D/G,/ | E/D/E/G,/ F/E/D/C/ | B,/A,/B,/G,/ C/G,/D/G,/ | %318
!p! E/D/E/G,/ F/G/A/G/ | E/D/E/C/!<(! A/_B/c/B/!<)! |!>(! _B/A/B/!>)!G/ A/G/A/F/ | %321
 E/G/A/G/ D/G/A/G/ | GGG G- | GGG!<(! C-!<)! |!>(! CC!>)!C (D | E)EDD |"_cresc." ^F4 | G2 (E,2- | %328
!p! E,2 D,2 |"_cresc." C,3) C- | C.D.E^F |[K:treble] GA/B/ c/d/e/=f/ | .g.e.d.g |!f! .g.e.d.g | %334
 .g.e.d.g | .g.e.d.g | g[K:bass]C,, z C,,- | C,,.E,,.G,,.G,, | .C,,.E,,.G,,.G,, | %339
 .C,,.E,,.G,,.G,, | [C,,C,]C,, z2 | z4 |!p! _A,,4- | A,,4 | [_A,,_E,]4- | [A,,E,]4- | %346
 ([A,,E,]2!f! F,/G,/._A,) | z4 |!p! F,,4- | F,,4 | [F,,C,]4- | [F,,C,]4- | ([F,,C,]2 =D,/=E,/.F,) | %353
 z4 | _D,,4- | D,,4 | [_D,,_A,,]4- | [D,,A,,]4- | [D,,A,,]4- | [D,,A,,]4- | [D,,A,,]4- | %361
 [D,,A,,]4- | [_D,,_A,,]4- | [D,,A,,]4- | [D,,A,,]4- | [D,,A,,]4- | [D,,A,,]4- | [D,,A,,]4- | %368
"_cresc." [D,,A,,]4- | [_D,,_A,,]4- | [D,,A,,]4 |!p! [C,,G,,]4- | [C,,G,,]4- | %373
"_cresc." [C,,G,,]4- | [C,,G,,]4 |!f! (3.C,,(E,,D,, (3.E,,)(G,,F,, | (3.G,,)(C,B,, (3.C,)(E,D, | %377
 (3.E,)(G,F, (3.G,)(CB, |[K:tenor] (3.C)(ED (3.E).G.B |!p!"_cresc." c4- | (cA).G.F | (EGA)z/G/ | %382
 (^FG).=F.D |[K:bass]!f! (3.C,,(G,,F,, (3.G,,)(C,B,, | (3.C,)(E,D, (3.E,)(G,F, | %385
 (3.G,)(CB, (3.C)(ED | .E)[K:treble].G.c.e |!p!"_cresc." (g4 | f2 ed) |!f! (3.c(G^F (3.G)(cB | %390
 (3.c)(ed (3.e)(g^f | g/)=f/e/d/ c/B/A/G/ | e/d/c/B/ A/G/F/E/ |[K:tenor] !trill(!TD4 | %394
 !trill(!TG4({^FG)} |!p! (G,A,/B,/ C) z | (G,A,/B,/ C) z | (GF).E.D | (DEC) (E,/F,/ | %399
 G,A,/B,/ C) z | (G,A,/B,/ C) z |[K:bass]"_ri" G,,4 | C,2 z2 |[K:tenor] (G"_dan"F)(.E.D) | %404
 C2"_do" z2 |[K:bass]!f![Q:1/4=120]"^a tempo" (G,,/A,,/G,,/F,,/ E,,/G,,/F,,/D,,/) | %406
 C,, z [C,,G,,E,C] z | [C,,G,,E,C] z z2 |] %408
V:2
 x6 | x6 | x6 | x6 | x3[K:bass] x3 | x6 |[K:tenor] x6 |[K:bass] x6 | x3[K:tenor] x3 | x6 | x6 | %11
 x6 | x6 | x6 | x6 | x6 | x6 | x6 | x6 | x6 | x6 | x6 | x6 | x55/4 | x3 | x3 | x2[K:bass] x4 | x4 | %28
[M:2/2] x2 |: x3[K:tenor] x5 | x8 | x4[K:bass] x4 | x8 | x8 | x8 | x8 | x8 |[K:tenor] x8 | x8 | %39
 x4[K:bass] x4 | x8 | x8 | x8 | x8 | x6[K:tenor] x2 | x8 | x8 |[K:bass] x8 |[K:tenor] x8 | x8 | %50
 x8 | x8 | x8 | x8 | x8 | x8 |[K:bass] x8 | x8 | x8 | x8 | x8 | x8 | x4[K:tenor] x4 | x8 | x8 | %65
 x8 | x8 | x8 |[K:bass] x8 | x8 | x8 | x2[K:tenor] x6 | x6[K:bass] x2 | x2[K:tenor] x6 | %74
[K:bass] x4[K:tenor] x4 | x8 |1 x8 :|2 x8 ||[K:bass] x6[K:tenor] x2 | x8 | x8 | x8 | x8 | x8 | x8 | %85
 x8 | x8 | x8 | x8 | x8 | x8 | x8 | x8 | x8 | x8 | x8 | x8 | x8 | x8 | %99
[K:bass] x11/2[K:tenor] x5/2 | x8 | x8 | x4[K:bass] x4 | x8 | x8 | x8 | x8 | x4[K:tenor] x4 | x8 | %109
 x8 | x8 | x8 | x8 | x8 | x8 | x8 | x8 | x8 | x8 | x8 | x8 | x8 | x8 | x4[K:treble] x4 | x8 | x8 | %126
[K:tenor] x8 | x8 | x8 | x8 | x8 | x8 | x8 | x8 | x8 | x8 | x8 | x8 |[K:bass] x3[K:tenor] x5 | x8 | %140
 x6[K:bass] x2 | x8 | x8 | x8 | x4[K:tenor] x4 | x8 | x8 |[K:bass] x8 | x8 | x8 | x8 | x8 | x8 | %153
 x8 | x8 | x8 | x8 |][M:4/4] x8 | x4 | x4 | x8 | x8 | x4 | x4 | x8 | x[K:tenor] x7 | x8 | %167
 x9/2[K:bass] x5/2[K:tenor] x ||[M:6/8] x6 | x6 | x6 | x6 | x6 | x6 | %174
 x4 x !fermata!x/!>(! x/!>)! ||[M:2/4] x4 | x4 | x4 | x4 | x4 | x4 | x4 | x4 | x4 | x4 | x4 | x4 | %187
 x4 | x4 | x4 | x4 |[K:bass] x4 | x4 | x4 | x3[K:tenor] x | x4 | x3[K:bass] x | x4 | x4 | x4 | x4 | %201
 x4 | x4 | x4 | x4 |[K:tenor] x4 | x4 | x4 | x4 | x4 | x4 | x4 | x4 | x4 | x4 | x4 | x4 | x4 | %218
 x2[K:bass] x2 | x4 | x2[K:tenor] x2 | x4 | x4 |[K:treble] x4 | x4 | x4 | x4 | x[K:bass] x3 | x4 | %229
 x4 | x4 | x4 | x4 | x4 | x4 | x4 | x4 | x4 | x4 | x4 | x4 | x4 | x4 | x4 | x4 | x4 | x4 | x4 | %248
 x4 | x4 | x4 | x4 | x4 |[K:tenor] x4 | x4 | x2[K:bass] x2 | x4 | x4 |[K:tenor] x4 | x4 | x4 | x4 | %262
 x4 | x4 | x4 | x4 | x2[K:bass] _E,2 | _D,4 | C,4 | _B,,4 | _A,,4 | G,,4 | x4 | x4 | x4 | x4 | x4 | %277
 x4 | x4 | x4 | x3[K:tenor] x | x4 | x4 | x4 | x4 | x4 | x4 | x4 | x4 | x4 | x4 | x4 |[K:bass] x4 | %293
 x4 | x4 | x3[K:tenor] x | x4 | x3[K:bass] x | x4 | x4 | x4 | x4 | x4 | x4 | x4 | x4 | x4 | x4 | %308
 x4 | x4 | x4 | x4 |[K:tenor] x4 | x4 | x4 | x4 | x4 | x4 | x4 | x4 | x4 | x4 | x4 | x4 | x4 | x4 | %326
 x4 | x4 | x4 | x4 | x4 |[K:treble] x4 | x4 | x4 | x4 | x4 | x[K:bass] x3 | x4 | x4 | x4 | x4 | %341
 x4 | x4 | x4 | x4 | x4 | x4 | x4 | x4 | x4 | x4 | x4 | x4 | x4 | x4 | x4 | x4 | x4 | x4 | x4 | %360
 x4 | x4 | x4 | x4 | x4 | x4 | x4 | x4 | x4 | x4 | x4 | x4 | x4 | x4 | x4 | x4 | x4 | x4 | %378
[K:tenor] x4 | x4 | x4 | x4 | x4 |[K:bass] x4 | x4 | x4 | x[K:treble] x3 | x4 | x4 | x4 | x4 | x4 | %392
 x4 |[K:tenor] x4 | x4 | x4 | x4 | x4 | x4 | x4 | x4 |[K:bass] x4 | x4 |[K:tenor] x4 | x4 | %405
[K:bass] x4 | x4 | x4 |] %408
V:3
"^Andante" z6 | z2 z!p! (B,CD) |"_dolce" ([Bg][cf][FGd] [EGc]2 [DGB] | cBA/d/) d2 z | %4
 (B/c/d/B/.=f/)f/ f2 !fermata!z/ z/ | z z ([Gg]- [Gg]2 [FGf] | [EGe][DGd][CGc]) (c f2) | %7
 (f>^fg/=f/)!<(! (f>ec')!<)! |!>(! (c'>da)!>)! (a/g/B/d/c | %9
 [DB]2) z ([GB]/[Ac]/[Bd]/[GB]/!fermata![fa]/)([fa]/ | [eg][df][ce] [Bd]2 [ce]/[df]/ | %11
 [eg]/[fa]/[g_b]/[eg]/[bd']/)[bd']/ ([bd'][ac'][fa]) | ([=Bd][Ac][GB])!<(! (!2!!3![GB] [Ee]2)!<)! | %13
!mf!!>(! ([Ee] [Aa]2)!>)! ([Ee][Ff][Ee]) | (a/g/B/d/c) z2 z | (e/d/[A,^F]/[CA]/ !trill(!TG-) G3- | %16
 !trill(!Tz z g g2 !trill)!=f | %17
 !trill(!Ted!trill)!c (!trill(!Tc/d/4!trill)!e/4!trill(!Tf-) (3:2:4f/-f/^f/4g/4 | %18
 [Gg][=F=f][FGd] [EGc]2 [DGB] |"_cresc." ([C^FAc][B,GB]d/g/)!p! ([Gcg]2 e) | %20
 (e/f/g/e/.c'/)c'/ (g2 e/f/ | ga!1!B!<(! !4!c/)[I:staff +1] (!1!G,/A,/B,/C/!5!D/!<)! | %22
!>(! !4!C/)(C/A,/F,/D,/G,/!>)! E,/4)!<(![I:staff -1](!1!B/4c/4B/4 c/4d/4e/4d/4 !1!e/4f/4g/4f/4)!<)! | %23
!>(! Tg/T^g/Ta/T_a/T=g/TB/!>)!{^f} Tg!p! !2!^f/4!1!=f/4"^(l. H.)"!1!d/4!ped!!2!B/4!4!G/4 !1!F/4D/4[I:staff +1]B,/4G,/4[I:staff -1] x3 x7/4 G/4B/4d/4 !fermata![GBdf]!ped-up!"_molto dolce"!ped! (e | %24
 g2) z | z z (([Ee] | [Gg]2)) z z [Ee] z | z [Ec] z !fermata!C!ped-up! | %28
[M:2/2]!ff!"^Allegro" [Ee]2 |:[Q:1/4=144]"^vivace" [Aa]3 [Bb] [cc']3 [dd'] | %30
 [ee']4- [ee']z/[dd']/[cc']z/[Bb]/ | Az/!3!f/ez/!1!d/ !3!cz/B/Az/!5!B/ |{B,C} (!>!D4 !>!F4 | %33
 E4-) (EB.c)z/^G/ | (^G/A/) z A3 (e.f)z/^c/ | (^c/d/) z d2-"_cresc." (d^ga)z/^d/ | %36
!mf! (^d/e/) z E2 z2 [Ee]2 |!f! [Aa]3 [Bb] [cc']3 [dd'] | [e-e']4 [ee']z/!4!d'/c'z/b/ | %39
 az/!4!f/ez/d/ !1!cz/B/Az/c/ | ^F2 z2 z4 | z4 z2"_espressivo" (d2 | g3 ^f/e/ d2) D2 | %43
 ^D2 z2 z2 (b2 | e'3 =d'/c'/ b2) b2 |!<(! (b2 e'2 d'2 b2)!<)! |!>(! (d'3 c'/b/ !1!a2 !3!^a2)!>)! | %47
"_cresc." (!4!b6 [cc']2) | z2 ([cc']2- [cc']3/2a/4^f/4 .^d2) | z2 ([ee']2- [ee']3/2b/4g/4 .e2) | %50
 z2 ([Bb]2- [Bb]3/2a/4^f/4 .B).[B,^FA] | .[B,EG]2 z2 [eg]4- | [eg]4 [ge']4- | [ge']4 [EG]4- | %54
"_dimin." ([EG]2 !4![D=F^G]2 !5![CA]2 !4![A,C^F]2 | %55
 !4![B,D]2[I:staff +1] !3![A,C]2 !5![=G,B,]2 [^F,B,]2) | %56
"_cresc."[I:staff -1] (3!3!bab (3c'ba (3!1!g!2!^fg (3agf | (6:4:6!1!e!2!^de!3!^fed (6:4:6edefed | %58
 (6:4:6!3!^f!1!efgfe (6:4:6fefgfe | (6:4:6g^fgagf (6:4:6gfgagf | (6:4:6gee'ee'e (6:4:6e'ee'ee'e | %61
 (6:4:6e'ee'ee'e (6:4:6e'ee'ee'e | (6:4:6e'ee'ee'e"_dimin." (6:4:6e'ee'ee'e | %63
 (6:4:6e'ee'ee'e (3!5!e'!2!c'!1!d' (3e'=f'g' | (g'2 f'e' !3!e'2 ^d'e') | %65
!<(! (!5!e'b)(bc')!<)!!>(! (c'bc'a)!>)! |"_dimin." (g2 ^f2 e2 ^d2) |!f! e3 [Bb] [ee']3 [Bb] | %68
 (([dd']2 [cc']4)) .[Bb].[Aa] | (!4!^fe).^d.f .!1!B.A.G.^F | .E.B.e.!1!B .!3!g.B.b.B | %71
 .!5!g.B.!1!G.!5!B .!2!E.B.B,.B | Ez/B/ez/!1!B/ !3!gz/B/bz/B/ | gz/B/Gz/!5!B/ !2!Ez/B/B,z/B/ | %74
 E2 z2 [Bb] z [^FA^d^f] z | [^FA^d^f] z [GBeg] z [Ee] z z2 |1!p! [^D^F] z [EG] z E z!ff! [Ee]2 :|2 %77
!p! [^D^F] z [EG] z E z z2 || %78
!pp![I:staff +1] [=F,B,=D][I:staff -1] z[I:staff +1] [E,CE][I:staff -1] z[I:staff +1] [E,C][I:staff -1] z!f! [Gg]2 | %79
 [cc']3 [dd'] [ee']3 [ff'] | [gg']4- [gg']z/[ff']/[ee']z/[dd']/ | %81
 [cc']z/!4!a/gz/f/ !1!ez/!3!d/!2!cz/e/ | ^F2 z2[K:bass] (!4!C,4 | %83
 A,,4)[K:treble] !2!^fz/d'/c'z/b/ | az/!1!g/!2!^fz/a/ c2[K:bass] !3!C,2 | %85
 _B,,4 D,[K:treble] z/ !4!a/gz/=f/ | !1!ez/!3!d/^cz/e/ [Ge]4 | [G^c]4 [Ge]4 | %88
 [G^c]4 z3/2 !4!_b/az/g/ | !1!fz/!3!e/dz/f/ z3/2 !4!f/dz/=c/ | !4!=Bz/A/^Gz/A/ z3/2 A<AA/ | %91
 _B2 z2 z3/2"_dimin." d/_ez/f/ |!pp! (!3![Gc]4 !2!!4![_B_e]4 | [G_e]4 [Af]4 | [_Bf]4 [Gg]4) | %95
 [^Gd^g]4 [=G^c=g]2"_cresc." [e'g']/g/[e'g']/g/ | %96
 [e'g']/g/[e'g']/g/ [d'f']/f/[d'f']/f/ [d'f']/f/[d'f']/f/ [d'f']/f/[d'f']/f/ | %97
!f! [d'f']/f/[d'f']/f/ [d'f']/f/[d'f']/f/ [d'f']/f/[d'f']/f/ [d'f']/f/[d'f']/f/ | %98
 [d'f']/f/[d'f']/f/ [d'f']/f/[d'f']/f/ [d'f']/f/[d'f']/f/ [d'f']/f/[d'f']/f/ | %99
 [fd'f'] z/ e/dz/f/ =B2 z2 | z4 [Aa]3 [Bb] | [cc']3 [dd'] [ee']4- | %102
 [ee']z/[ee']/[ee']z/[ee']/ [ee']z/[ee']/[ee']z/[ee']/ |!>(! (e'2 d'c' c'2!>)! ba) | %104
"_dim." (3!5!a^g!2!f (3!3!fed (3!3!dcB (3(Bc).^G |!p! (!2!^G/!3!A/) z !1!A3 !4!e (3(ef).^c | %106
"_cresc." (^c/d/) z d3 !4!^g (3(ga).[Ad] |!mf! ([^G^d]/e/) z E z z2[K:bass]"_dimin." [F,B,]2 | %108
 E,2 C,2 z4 |[K:treble]"^a tempo" z4 z2"_espressivo" (c2 | f3 e/d/ c2) c2 | (c2 c'2 _b2 g2) | %112
 [Ff]4 [Ff]2 z2 | z2 (A4 ^c2 | d3 =c/_B/ A2) A2 |!<(! (A2 a2!<)!!>(! g2 [E^ce]2!>)! | %116
 d2) ([dd']2 [_e_e']2) [^d^d']2 |"_cresc." ([=e=e']6 [ff']2) | z2 ([ff']2- [ff']3/2d'/4b/4 .^g2) | %119
 z2 ([ee']2- [ee']3/2c'/4a/4 .e2) | z2 ([ee']2- [ee']3/2d'/4b/4 .e).[DBd] | %121
 [CAc]2 z2[K:bass] [C,A,]4- | [C,A,]4[K:treble] [ca]4- | [ca]4[K:bass] [A,C]4- | %124
"_dim." ([A,C]2 [G,_B,^C]2 [A,D]2 [F,=B,]2 | [E,G,]2 [D,F,]2 [C,E,]2 [B,,E,]2) | %126
[K:treble]"_cresc." (3!3!ede (3fed (3!1!c!2!Bc (3!4!dcB | (6:4:6!1!A!2!^GA!3!BAG (6:4:6AGABAG | %128
 (6:4:6!3!B!1!ABcBA (6:4:6BABcBA | (6:4:6cBcdcB (6:4:6cBcdcB | (6:4:6cAaAaA (6:4:6aAaAaA | %131
 (6:4:6aAaAaA (6:4:6aAaAaA | (6:4:6aAaAaA"_dimin." (6:4:6aAaAaA | %133
 (6:4:6aAaAaA (3!5!a!2!f!1!g (3a_bc' | (!4!c'2 _ba !3!a2 ^ga) | %135
!<(! (!5!a=e)(ef)!<)!!>(! (fefd)!>)! |"_cresc." ([Ec]2 [DEB]2 [CEA]2 [B,E^G]2) | %137
!f! [CEA]3 [ee'] [aa']3 [ee'] | (([gg']2 [ff']4)) .[ee'].[dd'] | %139
 ([Bb][Aa]).[^G^g].[Bb] .[Ee].[Dd].[Cc].[B,B] | .[A,A].!2!e.!5!a.!4!e .c'.e.e'.e | %141
 .c'.e.c.!5!e .A.e.E.e | Az/e/az/e/ c'z/e/e'z/e/ | c'z/e/cz/e/ Az/e/Ez/e/ | %144
 A2 z2 .[e^gbe']2 .[Begb]2 | [Be^gb] z [ceac'] z [Acea] z z2 |!p! [DB] z [Ec] z [CA] z z2 | %147
!f! [A^cea] z [_Bce_b] z!f!!>(! [Bceg]4-!>)! |!p! [Bceg]6 g'2- | %149
 g'>(f'e')z/.d'/ .^c'z/._b/.az/.g/ | (f6 f'2-) | f'>(e'd') z/ .a/ .g z/ .f/.e z/ .d/ | %152
"_cresc." d6 f'2- | f'>(d'=c')z/._b/ .az/.^g/!f! .[^G=Bdf]z/.[GBde]/ | dz/c/Bz/A/ e z E z | %155
 .[^GBe^g]2 .[ee']2 .[Aa]2 z2 | !fermata!z8 |] %157
[M:4/4][Q:1/8=56]"^Adagio"!p! [Gg]2 (G/8A/8G/8^F/8G/8!1!D/8E/8!3!F/8!1!G/8A/8B/8!4!c/8!1!d/8e/8=f/8^f/8) (g>=f [DGd]) z | %158
 ([Gg] [Aa]2 [Gg]) | %159
!pp! (g/8a/8g/8^f/8g/8e/8=f/8g/8!1!a/8!3!_b/8!1!c'/8!2!d'/8!3!^d'/8!1!e'/8=f'/8^f'/8 g') z | %160
 z4 z"_cresc." [Aa][^G^g][ff'] |!f! [^c^c'][_B_b]!>(!([Aa]!>)!!p![Dd])"_cresc." !5!^f2 =g2 | %162
!f! !5!a2!>(! !5!_b2!>)! | %163
"_cresc." _a/4=e/4=f/4d/4 f'/4^c'/4d'/4_a/4 f'/4=b/4=c'/4g/4 _e'/4b/4c'/4g/4 | %164
!f! _e'/4b/4d'/4f/4 !4!d'/4b/4d'/4f/4!>(! d'/4b/4d'/4c'/4 !5!c'/4g/4c'/4_e/4!>)!"_dimin." c'/4!1!d/4e/4c/4 !5!_a/4d/4e/4c/4 !5!g/4d/4e/4c/4 !4!^f/4d/4e/4c/4 | %165
 G z[K:bass]!p! [G,B,D][G,B,D] [G,C=E][G,CE] z [^F,CD] | %166
 [G,C][K:treble] (!2!g- g/e/c'/>b/) (ba/=f/ !1!d/!5!g/f/d/) | %167
"_dim." !trill(!TB7/4d/4 [Gdf] z [DGd] z z2 || %168
[M:6/8]!pp!"^Tempo d'Andante" ([cc'][Bb][Aa] [Gg]/>[Aa]/ [Gg]/[Gg][Aa]/4[Bb]/4 | %169
 [cc']/d/e/c/.g/)g/"_cresc." (g2 e) | (e2 ^c)"_dimin."!>(! ([=Bc][Ad]/)!>)! z/!p! !2!=B | %171
{d} (c/4B/4!1!c/4d/4e/4d/4e/4c/4 .g/4)g/4g/4g/4"_cresc." (g2 [Af]/[Ge]/) | %172
 e2 ([Dd]/[^C^c]/)"_dimin"!>(! ([Cc][Dd]/)!>)! z/ ([=B,=B]/[Gg]/) |!p!{^f} !trill(!Tg6 | %174
 g3 !trill)!g2!<(! (g!<)!{^fg)} ||[M:2/4][Q:1/4=120]"^Allegro vivace"!p! (ga/b/.c') z | %176
 !fermata!z4 | z2 z c'- | !fermata!c'3!p! (!2!e/!3!f/ | !1!g"_dolce"a/b/c') z | (!1!ef/g/a) z | %181
 (de/f/ .g).f | .e.c.G z |[K:bass]!p! [E,G,]4 | [E,G,]3 [E,G,] |!<(! [E,A,][E,G,][D,F,][C,E,]!<)! | %186
!p! (([C,E,]2 [B,,D,])) z | z2[K:treble] z [cc']- | [cc']3 [Ff]- | [Ff]!1!G- GA/B/ | %190
 !1!c/d/e/f/ gg | (3(!1!gc'b (3c'e'd' | (3e'd'c' (3b!5!c'!2!g) |!<(! (_b/a/).g (g/f/).e!<)! | %194
!p! ([Gce]2 [G=Bd])"_cresc." (c'/_b/) | (c'/_b/).g (g/f/).e |!f! (e/d/).g c z | %197
[K:bass] [E,G,C] z .!3!D,.C, | B,, z .C,.D, |"_cresc." .E, z .D,.C, | .C,.C,.B,,[K:treble] [ebe'] | %201
 !2!!5![c'e']/^d'/e'/e/ !5!=d'/e/c'/e/ | b/c'/b/e/ c'/e/d'/e/ | %203
"_cresc." e'/e/!5!e'/c'/ !2!b/a/!4!b/g/ | (!3!g/^f/)[dd'] [dd'][dd'] | [dbd'] z .[cac'].[Bgb] | %206
 [A^fa] z .[Bgb].[cac'] |"_cresc." .[dbd'][dbd'].[cac'].[Bgb] | .[A^fa] a/g/ f/e/!1!d/!3!c/ | %209
!p! !2!B/A/B/G/ !3!c/d/e/d/ | B/A/B/G/!<(! !3!e/=f/g/f/!<)! |!>(! f/e/f/d/!>)! !3!e/d/e/!1!c/ | %212
 !2!B/d/e/d/ A/d/e/d/ | [Bd][I:staff +1] [G,B,][G,B,]([^F,A,] | %214
 [G,B,])[G,B,][G,B,]!<(! (([A,C]!<)! |!>(! [B,D]))[I:staff -1][_A,_A][G,G]!>)! [EG] | %216
 [DG][DG][D^F][DF] |"_cresc." (G g2 ^c) | (^cd) d2 |!p! z [DGB] z [D^FA] | %220
"_cresc." GA/B/ =c/d/e/^f/ | [^cg]/a/b/a/ fc | (^cd) d2 | %223
[I:staff +1] D,/E,/^F,/!1!G,/ !2!A,/!3!B,/!1!=C/D/ |!f![I:staff -1] B,/D/G/D/ ^F/D/C/D/ | %225
 B,/D/G/D/ ^F/D/C/D/ | B,/D/G/D/ ^F/D/C/D/ | [B,D] (!1!g/a/ .b)(!2!b/c'/ | .d')(c'/b/ .a)(e'/d'/ | %229
 .d')(c'/b/ .a)(e'/d'/ | .d')(c'/b/ .a)(g'/^f'/) | .[bg'].[Gg] z2 | z4 | z4 | z4 | z4 | z4 | %237
!p! (_bc'/d'/!f!._e') z | z4 | z4 | z4 | z4 | z4 |!p! (g=a/b/!f!.c') z | z4 | z4 | z4 | z4 | z4 | %249
!pp! (_ef/g/"^ten" _a2 | fg/_a/ _b2 | g/_b/c'/_d'/ ._e').d' | .c'.c (!1!C=D/=E/ | F2 !2!D!1!=E/F/ | %254
 .=E).=e (ef/g/) |"_cresc." (g/c/).f .f.f | (fd/c/) .=B.g | (g_d/c/) cc | !2!c/!1!e/f/g/ ._a.f | %259
 (!5!=d!2!_A/G/) GG | !1!G/!2!=B/!3!c/!1!d/ ._e.c' | (=a_e/d/) dd |!f! (d=e/^f/ g2-) | g2 =f2- | %264
 f2 _e2- | e2 d2- | (dc) z2 | z2 (!1!_ef/g/) | (!2!_a_b/c'/) z2 | z2 (c=d/=e/) | (fg/_a/) (fg/a/) | %271
 (d_e/f/) (cd/e/) | (!1!_A!2!_d/!4!e/ !1!_a_d'/f'/) | (_E=A/c/ _e=a/c'/) | (=DG/=B/ dg/=b/) | %275
 (C^F/A/ c^f/a/) | (B,D/G/) (DG/B/) | (DG/B/) (GB/d/) |!f! (GB/d/)"_dimin." (gb/d'/) | %279
!pp! (gb/d'/) g'g' |!p! (ga/b/c') z | (ef/g/a) z | (de/f/ .g).f | .e.c.G z |[K:bass] [E,G,]4 | %285
 [E,G,]3 [E,G,] |!<(! [E,A,][E,G,][D,F,][=C,E,]!<)! | (([C,E,]2 [B,,D,])) z | %288
 z2[K:treble] z [cc']- | [cc']3 [Ff]- | [Ff]!1!G- GA/B/ | !1!c/d/e/f/ gg | (3(!1!gc'b (3c'e'd' | %293
 (3e'd'c' (3b!5!c'!2!g) |!<(! ([e_b]/a/).[eg] ([dg]/f/).[ce]!<)! | %295
!p! ([ce]2 [=Bd])"_cresc." (c'/_b/) | (_b/a/).g (g/f/).e |!f! (e/d/).g c z | %298
[K:bass] [E,G,C] z .D,.C, | B,, z .C,.D, |"_cresc." .E, z .D,.C, | .C,.C,.B,,[K:treble] [be']/e/ | %302
 !2!!5![c'e']/^d'/e'/e/ =d'/e/c'/e/ | b/c'/b/e/ c'/e/d'/e/ |"_cresc." e'/e/e'/e/ e'/e/f'/f/ | %305
 g'/g/!4!!5![=bc']/f/ [_bc']/e/[bc']/!2!g/ | [cac'] z .[_Bg_b].[Afa] | [Geg] z .[Afa].[_Bg_b] | %308
"_cresc." .[cac'] z .[_Bg_b].[Afa] | .[Geg]g/f/ e/d/!1!c/!3!_B/ |!p! !2!A/G/A/F/ !3!_B/c/d/c/ | %311
 A/G/A/F/ !3!e/f/g/f/ |!<(! !3!f/e/f/d/ f/g/a/g/!<)! |!>(! f/e/!5!f/d/!>)! B/G/ g/G/ | %314
!f! g/G/g/G/ g/G/g/G/ | g/G/g/G/ g/G/g/G/ | g/G/g/G/ g/G/g/G/ | [Gg] [gg'][gg'][gg'] | %318
!p! [gg'] !4![CE][CE](([B,D] | [CE]))[CE]!<(![CE] (([DF]!<)! |!>(! [EG]))[EG^c]!>)![FAd][FAd] | %321
 [G=ce] !2!!4![EG][DG] !4!f | e/d/e/c/ !3!f/g/a/g/ | e/d/e/c/!<(! !3!b/c'/d'/c'/!<)! | %324
!>(! !4!c'/b/c'/^g/!>)! !3!a/g/a/!1!f/ | !2!e/=g/a/g/ d/g/a/g/ |"_cresc." (c c'2 ^f) | (^fg) g2 | %328
!p! z [Gce] z [GBd] |"_cresc." !1!cd/e/ !1!=f/g/a/!1!b/ | !3!c'/d'/e'/d'/ c'^f | (^fg) g>G, | %332
 G,/A,/B,/C/ D/E/=F/G/ |!f! !2!E/G/c/G/ !5!B/G/[DF]/G/ | [CE]/G/c/G/ B/G/[DF]/G/ | %335
 [CE]/G/!5!c/!2!G/ B/G/[Fd]/G/ | [Ec] (c'/d'/ .e')(e'/f'/ | .g')(f'/e'/ .d')(a'/g'/ | %338
 .g')(f'/e'/ .d')(a'/g'/ | .g')(f'/e'/ .d')(a'/g'/) | .[gc'e'g'].C z2 | z4 | z4 | z4 | z4 | z4 | %346
!p! (_ef/g/!f!._a) z | z4 | z4 | z4 | z4 | z4 |!p! (c=d/=e/!f!.f) z | z4 | z4 | z4 | z4 | z4 | %358
 (!1!_A_B/c/ !4
1
!_d2) | (!2!_Bc/_d/ !5
2
!_e2) | !1!c/_e/f/_g/ _a!5!a | (3(_a!3!_d'c' (3d'f'_e' | %362
 (3f'_e'_d' (3c'd'_a) | (_b/_a/)._g (g/f/)._e | _e4 | (_a/_g/).f (f/_e/)_d | _d4 | %367
 (_b/_a/)._g (g/f/)._e |"_cresc." (_a/_g/).f (f/_e/)_d | (_a/_g/).f (f/_e/)._d | %370
 (_a/=g/).f (f'/_b/).[f=b] |!p! (3[=ec'](c'=b (3c'=e'd' | (3e'd'c' (3bc'g) | %373
"_cresc." (b/=a/).g (g/f/).e | =d4 |!f! [EGce]2 z2 | z4 | z4 | z4 | %379
!p!"_cresc." (3.G,([EG][^D^F] [EG]2) | (3.A,([=D=F][^CE] [DF]2) | (3.G,([=CE][=B,D] [CE]2) | %382
 (3.G,([CE][B,D]) (3.G,([CE][B,D]) |!f! [Gcg]2[I:staff +1] (3.E,[I:staff -1](ED | %384
 (3.E)(GF (3.G)(ed | (3.e)(ed (3.e)(gf | (3.g)(c'b (3.c')(c'b |!p!"_cresc." c'2-) (3c'bc' | %388
 (c'a) .g.f |!f! (3.e(E^D (3.E)(e^d | (3.e)(c'b (3.c')(e'^d' | [c'e'])[c'e'] e'/=d'/c'/b/ | %392
 !5!c'/b/a/g/ f/!4!e/d/c/ | G/A/B/!4!c/ d/e/f/^f/ | g/a/!3!b/!1!c'/ d'/e'/=f'/g'/ | %395
!p! ([Gg][Aa]/[Bb]/ [cc']) z | ([Gg][Aa]/[Bb]/ [cc']) z |[K:bass] [D,G,B,]4 | C3[K:treble] (e/f/ | %399
 [Gg][Aa]/[Bb]/ [cc']) z | ([Gg][Aa]/[Bb]/ [cc']) z |"_ri" (gf)(.e.d) | c2 z2 | %403
[K:bass] [G,,B,,]2"_dan" [A,,C,][B,,D,]"_do" | [C,E,]2 z2 | %405
[K:treble]!f!"^a tempo" (g/a/g/f/ e/g/f/d/) | c z [cegc'] z | [cegc'] z z2 |] %408
V:4
 z6 | z2 z (G,A,B,) | G,G,G, G,2 x | ([G,E][G,D][G,C]) [G,B,]2 z | %4
 [G,B,]2 z (G,,/A,,/B,,/G,,/F,/)(F,/ | E,D,C, B,,2 C,/D,/ | E,/F,/G,/E,/._B,/)B,/ (B,A,F,) | %7
 (=B,,A,,G,,) (G,, [C,,C,]2) | (C, [F,,F,]2) ([G,,G,]G,,C,/E,/ | %9
 [G,,G,]2) z [G,,G,]2 !fermata!z/ z/ | [C,C]3 [G,,G,]3 | [C,,C,]3 [F,,,F,,]3 | %12
 [G,,,G,,]3 ([G,,,G,,] [C,,C,]2) | ([C,,C,] [F,,F,]2) ([G,,G,][G,,,G,,][C,,C,]) | %14
 [G,E][^G,F][A,E] [A,C]([D,C][D,=G,B,]) |!<(! ([D,A,C]!<)!!>(!_E,/D,/G,,)!>)! (!1!G,^F,!3!=F, | %16
 [E,G,][D,F,][C,E,] [B,,D,]2 [C,E,]/[D,F,]/ | %17
 [E,G,]/[F,A,]/[G,_B,]/[E,G,]/[B,D]/)[B,D]/ ([B,D][A,C] (3[F,A,]/[D,F,]/[=B,,D,]/) | %18
 ([G,,B,,][A,,C,][B,,D,]/[G,,B,,]/ [C,E,]/[D,F,]/[E,G,]/[C,E,]/.[G,,D,]/)[G,,D,]/ | %19
 D,D,/G,/=F, E,2 z | z2 z (!5!C,,/D,,/E,,/C,,/!2!G,,/!1!F,,/ | %21
 E,,[F,,,F,,][G,,,G,,]) [G,,,G,,]/[G,,,G,,][G,,,G,,][G,,,G,,]/ | %22
 [E,,,E,,][F,,,F,,][G,,,G,,] [G,,,G,,]/[G,,,G,,][G,,,G,,]/- [G,,,G,,]/4F,,/4E,,/4F,,/4 | %23
"^(rit.)" E,,[F,,,F,,][G,,,G,,]/[G,,,G,,]/ !fermata![G,,,G,,] x2 x/4 !5!F,/4D,/4B,,/4G,,/4 F,,/4D,,/4B,,,/4G,,,/4B,,,/4D,,/4F,,/4 G,,/4B,,/4D,/4F,/4 G,/4B,/4D/4[I:staff -1]F/4[I:staff +1] x3/4"^ten" !fermata![G,B,DF] C,/4G,,/4E,,/4C,,/4 | %24
 C,/4G,,/4E,,/4C,,/4 C,/4G,,/4E,,/4C,,/4 C,/4G,,/4E,,/4C,,/4 | %25
 C,/4G,,/4E,,/4C,,/4 C,/4G,,/4E,,/4C,,/4 C,/4G,,/4E,,/4C,,/4 | %26
 C,/4G,,/4E,,/4C,,/4 C,/4G,,/4E,,/4C,,/4 C,/4G,,/4E,,/4C,,/4 C,/4G,,/4E,,/4C,,/4 [C,E,G,C] z | %27
 z [C,E,G,C] z !fermata!C, |[M:2/2] E,2 |: [A,,,A,,]3 [B,,,B,,] [C,,C,]3 [D,,D,] | %30
 [E,,E,]4- [E,,E,]z/[D,,D,]/[C,,C,]z/[B,,,B,,]/ | %31
 [A,,,A,,]z/!2!F,,/!3!E,,z/!1!D,,/ C,,z/B,,,/A,,,z/B,,,/ |{B,,,C,,} (!>!D,,4 !>!F,,4 | %33
 E,,)E,E,,E, E,,E,E,,E, | E,,E,E,,E, E,,E,E,,E, | E,,E,E,,E, E,,E,F,F,, | E,, z [E,,E,]2 z2 E,,2 | %37
 [A,,,A,,]3 [B,,,B,,] [C,,C,]3 [D,,D,] | [E,,E,]4- [E,,E,]z/!1!D,/C,z/B,,/ | %39
 !1!A,,z/!2!F,,/!3!E,,z/!1!D,,/ C,,z/B,,,/A,,,z/C,,/ | ^F,,,2 z2 z4 | z2!p! (!2!D,4 [C,^F,]2 | %42
 [B,,D,]4) [B,,D,]2 [G,,G,]2 | ^F,2 (B,,4 ^D,B,, | [G,,B,,]4) [G,,B,,]2 [G,B,]2 | %45
 [G,B,]2 [G,B,]4 [^G,B,]2 | [A,C]2 ([A,,,A,,][B,,,B,,] [C,,C,]2) [C,,C,]2 | [B,,,B,,]6 [A,,,A,,]2 | %48
 [A,,,A,,]2 z2 [A,,,A,,]2 z2 | [G,,,G,,]2 z2 [G,,,G,,]2 z2 | [^D,,^D,]2 z2 [D,,D,]2 z2 | %51
 [E,,E,]2 z2 (^A,,,2 C,,2 | ^A,,,2 B,,,2 A,,,2 C,,2 | ^A,,,2 B,,,2 A,,,2 C,,2 | %54
 !3!B,,,4 =A,,,2 !1!D,,2- | D,,2 !3!^D,,2 !2!E,,2 !5!B,,,2) | [B,,,B,,]6 [A,,,A,,]2 | %57
 [A,,,A,,]2 z2 [A,,,A,,]2 z2 | [G,,,G,,]2 z2 [G,,,G,,]2 z2 | [^D,,^D,]2 z2 [D,,D,]2 z2 | %60
 [E,,E,]2 z2 (^A,,,2 C,,2 | ^A,,,2 B,,,2 A,,,2 C,,2 | ^A,,,2 B,,,2) ([_B,,,_B,,]2 [A,,,^A,,]2 | %63
 [_B,,,_B,,]2 [G,,,G,,]2 E,,2 C,,2 | [_B,,,_B,,]4) [A,,,A,,]4 | B,,!2!F,!1!E,D, C,2 [^F,C]2 | %66
 ([D,G,B,]2 [^D,A,C]2 [E,G,B,]2 [B,,^F,B,]2) | [E,,E,]3 [G,,E,G,] [^G,,E,^G,]3 [G,,E,G,] | %68
 [A,,E,A,]2 [A,,,A,,]4 [A,,,A,,]2 | [B,,,B,,]2 z2 [B,,,B,,]2 z2 | %70
 .E,,.B,,.E,.!5!B,, .!2!G,.B,,.B,.B,, | .!1!G,.!2!B,,.!4!G,,.!1!B,, .!3!E,,.B,,.B,,,.B,, | %72
 E,,z/B,,/E,z/!5!B,,/ G,z/B,,/B,z/B,,/ | !1!G,z/B,,/G,,z/B,,/ E,,z/B,,/B,,,z/B,,/ | %74
 E,,2 z2 [B,,,^D,,^F,,B,,] z [B,,,D,,F,,B,,] z | [B,,,^D,,^F,,B,,] z [B,,,B,,] z [E,,E,] z z2 |1 %76
 [B,,^F,A,] z [E,G,] z E, z [E,,E,]2 :|2 [B,,^F,A,] z [E,G,] z E, z z2 || %78
 [G,,,G,,] z [C,,G,,] z [C,,G,,] z [G,,,G,,]2 | [C,,C,]3 [D,,D,] [E,,E,]3 [F,,F,] | %80
 [G,,G,]4- [G,,G,]z/[F,,F,]/[E,,E,]z/[D,,D,]/ | %81
 [C,,C,]z/!2!A,,/!3!G,,z/!1!F,,/ E,,z/D,,/!4!C,,z/E,,/ | [^F,,,^F,,]4 [A,,,A,,]4 | %83
 [^F,,,^F,,]4 [A,,,A,,]4 | [^F,,,^F,,]4 [A,,,A,,]4 | [G,,,G,,]4 [_B,,,_B,,]4 | %86
 [G,,,G,,]4 z3/2 !1!A,/G,z/!3!F,/ | !1!E,z/D,/^C,z/E,/ z3/2 !2!A,,/G,,z/!1!F,,/ | %88
 E,,z/D,,/^C,,z/E,,/ F,,4 | D,,4 [=B,,,=B,,]4 | [^G,,,^G,,]4 [A,,,A,,]4 | %91
 [_B,,,_B,,] z/"_dimin." !3!D,/_E,z/F,/ B,,z/B,,/C,z/D,/ |!pp! (!3!_E,4 !1!G,4 | _B,4 C4 | %94
 !1!D4 !3!_E4) | =E4 E2[K:treble] [^CEG]/A,/[CEG]/A,/ | %96
 [^CEG]/A,/[CEG]/A,/ [DF]/A,/[DF]/A,/ [DF]/A,/[DF]/A,/ [DF]/A,/[DF]/A,/ | %97
 [DF]/A,/[DF]/A,/ [DF]/A,/[DF]/A,/ [DF]/A,/[DF]/A,/ [DF]/A,/[DF]/A,/ | %98
 [DF]/A,/[DF]/A,/ [DF]/A,/[DF]/A,/ [DF]/A,/[DF]/A,/ [DF]/A,/[DF]/A,/ | %99
 [^G,=B,DF] z/ E/Dz/F/ B,z/[K:bass]C,/B,,z/E,/ | [A,,,A,,]3 [B,,,B,,] [C,,C,]3 [D,,D,] | %101
 [E,,E,]4- [E,,E,]z/[D,,D,]/[C,,C,]z/[B,,,B,,]/ | [A,,,A,,]z/F,,/E,,z/D,,/ C,,z/B,,,/A,,,z/C,/ | %103
 D,,4 F,,4 | E,,E,E,,E, E,,D,E,,D, | E,,C,E,,C, E,,A,,E,,A,, | %106
 E,,[^G,,B,,]E,,[G,,B,,] E,,E,,!4!F,,F, | E, z E,, z z2"^poco ritard." [_D,,_D,]2 | %108
 [C,,C,]2 C,,2 z4 | z2!p! (C,4 [_B,,E,]2 | [A,,C,]4) [A,,C,]2 z2 | z4 z2 [_B,C]2 | %112
 [A,C]4 [A,C]2 z2 | z2 (A,4 G,2 | [F,A,]4) [F,A,]2[K:treble] A,2 | (A,2 A2 G2)[K:bass] ([G,A,]2 | %116
 [F,A,]2 [D,F,]2 [C,_E,]2 [F,,F,]2) | [=E,,=E,]6 [D,,D,]2 | [D,,D,]2 z2 [D,,D,]2 z2 | %119
 [C,,C,]2 z2 [C,,C,]2 z2 | [^G,,,^G,,]2 z2 [G,,,G,,]2 z2 | [A,,,A,,]2 z2 (^D,,2 F,,2 | %122
 ^D,,2 E,,2 D,,2 F,,2 | ^D,,2 E,,2 D,,2 F,,2 | (!3!E,,4) =D,,2 G,,2 | G,,2 ^G,,2 A,,2 E,,2) | %126
 [E,,E,]6 [D,,D,]2 | [D,,D,]2 z2 [D,,D,]2 z2 | [C,,C,]2 z2 [C,,C,]2 z2 | %129
 [^G,,,^G,,]2 z2 [G,,,G,,]2 z2 | [A,,,A,,]2 z2 (^D,,2 F,,2 | ^D,,2 E,,2 D,,2 F,,2 | %132
 ^D,,2 E,,2) ([_E,,_E,]2 [F,,F,]2 | [_E,,_E,]2 [C,,C,]2 [A,,,A,,]2 [F,,,F,,]2 | _E,,4) F,,4 | %135
 =E,!2!_B,A,G, F,2 [D,F,]2 | [G,,C,E,]2 [^G,,D,E,]2 [A,,C,E,]2 [E,,B,,E,]2 | %137
 [F,,A,,C,]3 [C,A,C] [^C,A,^C]3 [C,A,C] | [D,A,D]2 [D,,D,]4 [D,,D,]2 | [E,,E,]2 z2 [E,,E,]2 z2 | %140
 .[A,,,A,,].!2!E,.!1!A,.!5!E, .!2!C.E,.E.E, | .C.E,.C,.!1!E, .A,,.E,.E,,.E, | %142
 A,,z/E,/A,z/E,/ Cz/E,/Ez/E,/ | Cz/E,/C,z/E,/ A,,z/E,/E,,z/E,/ | %144
 A,,2 z2 .[E,,^G,,B,,E,]2 .[E,,G,,B,,E,]2 | [E,,^G,,B,,E,] z [E,,A,,C,E,] z [A,,C,E,A,] z z2 | %146
 [E,^G,] z [E,A,] z [A,,E,A,] z z2 | %147
[K:treble] [A,^CEG] z [A,CEG] z [CEG]/A,/[CEG]/A,/ [CEG]/A,/[CEG]/A,/ | %148
 [^CEG]/A,/[CEG]/A,/ [CEG]/A,/[CEG]/A,/ [CEG]/A,/[CEG]/A,/ [CEG]/A,/[CEG]/A,/ | %149
 [^CEG]/A,/[CEG]/A,/ [CEG]/A,/[CEG]/A,/ [CEG]/A,/[CEG]/A,/ [CEG]/A,/[CEG]/A,/ | %150
 [DF]/A,/[DF]/A,/ [DF]/A,/[DF]/A,/ [DF]/A,/[DF]/A,/ [DF]/A,/[DF]/A,/ | %151
 [DF]/A,/[DF]/A,/ [DF]/A,/[DF]/A,/ [DF]/A,/[DF]/A,/ [DF]/A,/[DF]/A,/ | %152
 [DF]/_B,/[DF]/B,/ [DF]/B,/[DF]/B,/ [DF]/B,/[DF]/B,/ [DF]/B,/[DF]/B,/ | %153
 [DF]/_B,/[DF]/B,/ [DF]/B,/[DF]/B,/ [DF]/B,/[DF]/B,/ [=B,DF]/^G,/[B,DE]/G,/ | %154
[K:bass] Dz/C/B,z/A,/ E z E, z | .[E,,E,]2 .E,,2 .A,,,2 z2 | !fermata!z8 |] %157
[M:4/4] [B,,D,] [C,E,]2 [B,,D,] [B,,D,]3 z | %158
[K:treble] !2!C2 (C/8D/8C/8B,/8C/8G,/8A,/8B,/8C/8!1!D/8!3!E/8F/8G/8!4!A/8_B/8=B/8) | %159
 (c>_B G)[K:bass] ([E,,G,,]/[D,,F,,]/) | %160
 [^C,,E,,] z z2 (!1!A,/4!3!^D,/4!2!E,/4!4!^C,/4 A,/4D,/4E,/4C,/4 !1!B,/4!3!E,/4!2!=F,/4!5!=D,/4 B,/4E,/4F,/4!5!D,/4) | %161
 (^C/4^F,/4G,/4E,/4 C/4F,/4G,/4E,/4 D/4^G,/4A,/4=F,/4 A,/4E,/4F,/4D,/4) [D,^F,A,]2 [^C,E,=G,_B,]2 | %162
 [_E,^F,A,=C]2!f! [D,G,_B,D]2 | z [_A,,_A,][G,,G,][_E,_E] | %164
 [=B,,=B,][_A,,_A,][G,,G,][C,,C,] [_A,,,_A,,] A,,,A,,,A,,, | %165
 G,,, z G,,G,, [C,,C,][C,,C,] z [D,,D,] | [E,,E,] z [E,G,C][E,G,C] C/^C/D z [G,B,D] | %167
 z/ (G,/F,/D,/) !trill(!TB,,7/4D,/4 F, z z2 || %168
[M:6/8][K:treble] (!2
!G!1!F!2!E/^F/ [B,D]/>[CE]/[K:bass] [B,D]/[A,C=F]/[G,B,E]/[F,A,D]/ | %169
 [E,G,C]2) z [C,E,]2 z | (C,,/D,,/E,,/C,,/.G,,/)G,,/ (G,,F,,/) z/ [G,,G,] | [E,G,]2 z [C,E,]2 z | %172
{D,,} (C,,/4B,,,/4C,,/4D,,/4E,,/4D,,/4E,,/4C,,/4) [G,,_B,,G,]/4[G,,B,,G,]/4[G,,B,,G,]/4[G,,B,,G,]/4 (!>![G,,B,,G,][F,,A,,F,]/) z/ [G,,,G,,] | %173
 (!3!E,/4!1!G,/4!2!A,/4!1!G,/4 !2![D,F,]/4G,/4A,/4G,/4 [C,E,]/4G,/4A,/4G,/4 !4!B,,/4!2!D,/4!5!A,,/4!1!C,/4 G,,/4B,,/4F,,/4A,,/4 E,,/4G,,/4D,,/4F,,/4) | %174
 C,,/4E,,/4!4!!2![C,E,]/4!1!G,/4 [C,E,]/4G,/4[C,E,]/4G,/4 [B,,D,]/4G,/4[A,,C,]/4G,/4 [G,,B,,]/4!1!G,/4A,/4G,/4 [A,,C,]/4G,/4[B,,D,]/4G,/4 (TB,{A,B,)} || %175
[M:2/4] C2 z2 | !fermata!z4 | z2 z[K:treble] c- | !fermata!c3 (!3!E/F/ | GA/B/c) z | %180
 (!4!EF/G/A) z | (DE/F/ .G).F | .E.C.G, z |[K:bass] C,,4 | C,,3 !5!C,, | %185
 !4!^C,,C,, (D,,E,,/!1!F,,/) | (!2!^F,,G,,G,,,) (E,/=F,/ | G,A,/B,/.C) [C,C]- | [C,C]3 [F,,F,]- | %189
 [F,,F,]!1!G,- G,!4!A,/B,/ |[K:treble] C/!1!D/!3!E/F/ GG | [G,EG]4 | [G,EG]3 [G,EG] | %193
 [A,EG][A,EG][A,DF][A,CE] | (([G,CE]2 [G,=B,D]))[K:bass] C,,/C,/ | %195
 ^C,,/^C,/C,,/C,/ C,,/C,/C,,/^F,,/ | G,,,/G,,/G,,,/G,,/ [=C,,=C,] z | %197
 .[C,,C,] z .[B,,,B,,].[A,,,A,,] | [G,,,G,,] z .[A,,,A,,].[B,,,B,,] | %199
 .[C,,C,] z .[B,,,B,,].[_B,,,_B,,] | .[A,,,A,,].[_A,,,_A,,].[G,,,G,,] .[^G,,,^G,,] | %201
 .[=A,,,=A,,][K:treble] c/E/ B/E/A/E/ | ^G/A/G/E/ A/E/B/E/ | c/E/!2!A/E/ !4!!2![E=G]/A/[EG]/A/ | %204
 [D^FA][K:bass] !2!^F,/!3!E,/ !1!D,/C,/B,,/!1!A,,/ | G,,/^F,,/G,,/D,,/ A,,/D,,/B,,/D,,/ | %206
 C,/B,,/C,/D,,/ D,/C,/B,,/!1!A,,/ | G,,/^F,,/G,,/D,,/ A,,/D,,/B,,/D,,/ | %208
 C,/D,,/D,/D,,/ E,,/D,/^F,,/D,/ | G,,.G,.G,(^F, | !1!G,).G,.G,(!5!A, | %211
[K:treble] B,).[B,_A].[CG].[CG] | .[DG].[DG].[D^F][K:bass] [D,D] | %213
 [G,B,D] [G,,B,,][G,,B,,]([^F,,A,,] | [G,,B,,])[G,,B,,][G,,B,,] (([A,,C,] | %215
 [B,,D,]))[B,,D,][C,E,] [C,G,] | [D,G,][D,G,][D,^F,][D,F,] | !5!E,/!2!A,/G,/A,/ !1!^C/A,/G,/A,/ | %218
 !5!D,/!2!B,/!3!G,/!2!B,/ !1!D/B,/G,/B,/ | D,/B,/G,/B,/ C,/A,/^F,/A,/ | %220
 B,,/G,/D,/G,/ !4!E,/C/G,/C/ | !5!E,/!2!A,/!3!G,/A,/ ^C/A,/[E,G,]/A,/ | %222
 !5!D,/!2!B,/G,/B,/ D/B,/G,/D,/ | D,,/E,,/^F,,/G,,/ A,,/B,,/=C,/D,/ | .G,,.B,,.D,.D,, | %225
 .G,,.B,,.D,.D,, | .G,,.B,,.D,.D,, | !5!G,,/!3!D,/[G,B,]/D,/ [G,B,]/D,/[G,B,]/D,/ | %228
 [G,B,]/D,/[G,B,]/D,/ [^F,A,]/D,/[F,C]/D,/ | [G,B,]/D,/[G,B,]/D,/ [^F,A,]/D,/[F,C]/D,/ | %230
 [G,B,]/D,/[G,B,]/D,/ [^F,A,]/D,/D,/D,,/ | .[G,,,G,,].[G,,,G,,] z2 | z4 | z4 | z4 | z4 | z4 | %237
[K:treble] (_Bc/d/._e) z | z4 | z4 | z4 | z4 | z4 | (G=A/B/.c) z | z4 | z4 | z4 | z4 | z4 | %249
 z2!pp! (_A_B/c/ | _d2 _Bc/d/ | _e2) (_E/!1!G/_A/_B/ | c) z z2 | z4 | z4 | %255
[K:bass] (C,,=D,,/=E,,/"^ten." F,,2 | D,,_E,,/F,,/ G,,2) | %257
"_non ligato" !3!=E,,/!1!G,,/!3!_A,,/_B,,/ .C,.B,, | !>!_A,,4 | =B,,/D,/_E,/F,/ .G,.F, | !>!_E,4 | %261
 !3!^F,/!2!=A,/!3!_B,/C/ D[D,,D,] | [G,,,G,,]2 z2 | z2 (!3!=B,,C,/D,/) | (!3!_E,F,/G,/) z2 | %265
 z2 (!3!G,,=A,,/=B,,/) | (!4!C,D,/_E,/) !2!=A,,G,,/F,,/ | !1!_B,,_A,,/G,,/ !2!G,,F,,/_E,,/ | %268
 !1!_A,,G,,/F,,/ !2!F,,_E,,/_D,,/ | !1!G,,F,,/=E,,/ !2!E,,=D,,/C,,/ | %270
 !1!F,,_E,,/D,,/ D,,C,,/_B,,,/ | =B,,,=A,,,/G,,,/ !3!_E,,D,,/C,,/ | %272
 !2!F,,/!1!_A,,/F,,/A,,/ F,,/A,,/F,,/A,,/ | ^F,,,/=A,,,/F,,,/A,,,/ F,,,/A,,,/F,,,/^F,,/ | %274
 G,,,/D,,/G,,,/D,,/ G,,,/D,,/G,,,/D,,/ | G,,,/^F,,/G,,,/F,,/ G,,,/F,,/G,,,/F,,/ | %276
 G,,,/=F,,/G,,,/F,,/ G,,,/F,,/G,,,/F,,/ | G,,,/F,,/G,,,/F,,/ G,,,/F,,/G,,,/F,,/ | %278
 G,,,/F,,/G,,,/F,,/ G,,,/F,,/G,,,/F,,/ | G,,,/F,,/G,,,/F,,/ G,,,/F,,/G,,,/F,,/ | %280
 C,,[K:treble] (GA/B/c) | z (EF/G/A) | z (DE/F/G/F/ | .E).C.G, z |[K:bass] C,,4 | C,,3 C,, | %286
 ^C,,C,, (D,,E,,/F,,/) | (^F,,G,,G,,,) (E,/=F,/ | G,A,/B,/ .C) [C,C]- | [C,C]3 [F,,F,]- | %290
 [F,,F,]!1!G,- G,!4!A,/B,/ |[K:treble] C/!1!D/!3!E/F/ GG | [G,EG]4 | [G,EG]3 [G,EG] | %294
 [A,EG][A,EG][A,DF][A,CE] |[K:bass] ([G,-CE]2 [G,B,D]) C,,/C,/ | %296
 ^C,,/^C,/C,,/C,/ D,,/D,/E,,/^F,,/ | G,,,/G,,/G,,,/G,,/ [=C,,=C,] z | %298
 [C,,C,] z .[B,,,B,,].[A,,,A,,] | .[G,,,G,,] z .[A,,,A,,].[B,,,B,,] | %300
 .[C,,C,] z .[B,,,B,,].[_B,,,_B,,] | .[A,,,A,,].[_A,,,_A,,].[G,,,G,,].[^G,,,^G,,] | %302
 .[=A,,,=A,,][K:treble] c/E/ B/E/A/E/ | ^G/A/G/E/ A/E/B/E/ | c/E/c/C/ _B/C/A/C/ | %305
 !1!=G/C/F/C/ E/C/[K:bass] (3(C,,/D,,/E,,/ | F,,/)E,,/F,,/C,,/ G,,/C,,/A,,/C,,/ | %307
 _B,,/A,,/B,,/C,,/ C,/B,,/A,,/!1!G,,/ | F,,/E,,/F,,/C,,/ G,,/C,,/A,,/C,,/ | %309
 _B,,/C,,/C,/C,,/ !4!D,,/C,/E,,/C,/ | [F,,C,].F,.F,(E, | F,).F,.F,(A, | =B,).[B,D] .[B,D].[CE] | %313
 .[DF].[DF].[DF]!f! (3(G,,,/A,,,/B,,,/) | C,,/B,,,/C,,/G,,,/ D,,/G,,,/E,,/G,,,/ | %315
 F,,/G,,,/F,,/G,,,/ E,,/G,,,/D,,/G,,,/ | C,,/B,,,/C,,/G,,,/ D,,/G,,,/E,,/G,,,/ | %317
 F,,/G,,,/G,,/G,,,/ A,,/G,,,/B,,/B,,,/ | [C,,C,] !3![C,E,][C,E,](([B,,D,] | %319
 [C,E,]))[C,E,][C,E,] ((!4![D,F,] | !3![E,G,]))!5![E,G,^C][F,A,D][F,A,D] | %321
 [G,=CE] [G,C][G,B,] (([B,D] | [CE]))[CE][CE] (([B,D] | [CE]))[CE][CE] (([E,^G,] | %324
 [F,A,]))[F,A,][F,A,] (([F,A,] | [=G,C]))[G,C][G,B,][G,B,] | !5!A,,/!2!D,/C,/D,/ !1!^F,/D,/C,/D,/ | %327
 !5!G,,/!2!E,/C,/E,/ !1!G,/E,/C,/E,/ | G,,/E,/C,/E,/ G,,/D,/B,,/D,/ | G,,/E,/C,/E,/ G,/E,/C,/E,/ | %330
 A,,/D,/C,/D,/ ^F,/D,/C,/D,/ | G,,/E,/C,/E,/ G,/E,/C,/E,/ | G,,/A,,/B,,/C,/ D,/E,/=F,/G,/ | %333
 .[C,,C,].E,.G,.[G,,,G,,] | .[C,,C,].E,.G,.[G,,,G,,] | .[C,,C,].E,.G,.[G,,,G,,] | %336
 [C,,C,] [CE]/G,/ [CE]/G,/[CE]/G,/ | [CE]/G,/[CE]/G,/ [B,F]/G,/[B,F]/G,/ | %338
 [CE]/G,/[CE]/G,/ [B,F]/G,/[B,F]/G,/ | [CE]/G,/[CE]/G,/ [B,F]/G,/[B,F]/G,/ | .[G,CE].[C,,C,] z2 | %341
 z4 | z4 | z4 | z4 | z4 |[K:treble] (_EF/G/._A) z | z4 | z4 | z4 | z4 | z4 | (C=D/=E/.F) z | z4 | %354
 z4 | z4 | z4 | z4 |[K:bass] !1
3
!F,2 (F,_E,/_D,/) | _G,2 (G,F,/_E,/) | %360
[K:treble] [_E_G][CE] !5!C/E/F/_G/ | F2 (!5![F_A]2 | [_A_d]2 [df]2) | [_G_B]2 (C/_D/)._E | %364
 (_E/F/)._G (G/F/).G | F2 (_D/_E/).F | (F/_G/)._A (F/=E/).F | [_G_B]2 (C/_D/)._E | %368
 [F_A]2 (_D/_E/).F | [F_A]2 (_D/_E/).F | (F/=G/)._A (A/_B/).[F=B] | (3([=Ec]=e=d (3egf | %372
 (3gfe (3de)e | f (=B,/C/) (C/=D/).E | F[K:bass] ([F,A,]/[G,B,]/) ([G,B,]/[A,C]/).[B,D] | %375
 [C,E,G,C]2 z2 | z4 | z4 | z4 | E,,2- (3E,,(B,,C,) | F,,2- (3F,,(^C,D,) | G,,2- (3G,,(D,E,) | %382
 (3.G,,(E,F,) (3.G,,(E,F,) | [E,,E,]2 z2 | z4 | z4 | z4 | (3E,,C,B,, (3C,D,E, | %388
 (3F,,D,^C, (3D,E,F, | G,,/G,/G,,/G,/ G,,/G,/G,,/G,/ | G,,/G,/G,,/G,/ G,,/G,/G,,/G,/ | %391
 G,,/A,,/B,,/C,/ D,/E,/F,/G,/ | C,/D,/E,/F,/ G,/A,/B,/C/ | !trill(!TB,4 | %394
 (!trill(!TG,,4{^F,,G,,)} | ([G,,,G,,][A,,,A,,]/[B,,,B,,]/ [C,,C,]) z | %396
 ([G,,,G,,][A,,,A,,]/[B,,,B,,]/ [C,,C,]) z | [G,,,G,,]4 | [C,,C,]2 [E,,E,] (E,,/F,,/ | %399
 [G,,,G,,][A,,,A,,]/[B,,,B,,]/ [C,,C,]) z | ([G,,,G,,][A,,,A,,]/[B,,,B,,]/ [C,,C,]) z | %401
 [G,B,F]2 [A,CF][B,DF] | [CE]2 z2 | [G,,,G,,]2 [G,,,G,,][G,,,G,,] | [C,,G,,]2 z2 | %405
 (G,/A,/G,/F,/ E,/G,/F,/D,/) | C, z [C,,E,,G,,C,] z | [C,,E,,G,,C,] z z2 |] %408
V:5
 x6 | x6 | (G,,A,,B,,/G,,/ C,/D,/E,/C,/G,/G,/) | x6 | x6 | x6 | x6 | x6 | x6 | x6 | x6 | x6 | x6 | %13
 x6 | x6 | x6 | x6 | x6 | x6 | G,,G,,=F,, E,,2 x | x6 | x3 x3/2 G,G,/ | C,2 x x2 x | x55/4 | x3 | %25
 x3 | x6 | x4 |[M:2/2] x2 |: x8 | x8 | x8 | x8 | x8 | x8 | x8 | x8 | x8 | x8 | x8 | x8 | x8 | x8 | %43
 ^F,,2 !2!B,,4 A,,2 | x8 | x8 | x8 | x8 | x8 | x8 | x8 | x8 | x8 | x8 | x8 | x8 | x8 | x8 | x8 | %59
 x8 | x8 | x8 | x8 | x8 | x8 | (B,,,2 !5!B,,2 A,,2) D,2 | x8 | x8 | x8 | x8 | x8 | x8 | x8 | x8 | %74
 x8 | x8 |1 x8 :|2 x8 || x8 | x8 | x8 | x8 | x8 | x8 | x8 | x8 | x8 | x8 | x8 | x8 | x8 | x8 | x8 | %93
 x8 | x8 | x6[K:treble] x2 | x8 | x8 | x8 | x11/2[K:bass] x5/2 | x8 | x8 | x8 | x8 | x8 | x8 | x8 | %107
 x8 | x8 | x8 | x8 | x8 | x8 | x8 | x6[K:treble] x2 | x6[K:bass] x2 | x8 | x8 | x8 | x8 | x8 | x8 | %122
 x8 | x8 | x8 | x8 | x8 | x8 | x8 | x8 | x8 | x8 | x8 | x8 | x8 | %135
 (=E,,2 !1
5
!E,2 D,2) [G,,=B,,]2 | x8 | x8 | x8 | x8 | x8 | x8 | x8 | x8 | x8 | x8 | x8 | %147
[K:treble] x8 | x8 | x8 | x8 | x8 | x8 | x8 |[K:bass] x8 | x8 | x8 |][M:4/4] x8 |[K:treble] x4 | %159
 x3[K:bass] x | x8 | x8 | x4 | x4 | x8 | x8 | x4 [=F,A,][F,A,] x2 | x8 || %168
[M:6/8][K:treble] !4!E!3!D!4!C x2[K:bass] x | x6 | x6 | x6 | x6 | x6 | x6 ||[M:2/4] x4 | x4 | %177
 x3[K:treble] x | x4 | x4 | x4 | x4 | x4 |[K:bass] x4 | x4 | x4 | x4 | x4 | x4 | x4 | %190
[K:treble] x4 | x4 | x4 | x4 | x3[K:bass] x | x4 | x4 | x4 | x4 | x4 | x4 | x[K:treble] x3 | x4 | %203
 x4 | x[K:bass] x3 | x4 | x4 | x4 | x4 | x4 | x4 |[K:treble] x4 | x3[K:bass] x | x4 | x4 | x4 | %216
 x4 | x4 | x4 | x4 | x4 | x4 | x4 | x4 | x4 | x4 | x4 | x4 | x4 | x4 | x4 | x4 | x4 | x4 | x4 | %235
 x4 | x4 |[K:treble] x4 | x4 | x4 | x4 | x4 | x4 | x4 | x4 | x4 | x4 | x4 | x4 | x4 | x4 | x4 | %252
 x4 | x4 | x4 |[K:bass] x4 | x4 | x4 | x4 | x4 | x4 | x4 | x4 | x4 | x4 | x4 | x4 | x4 | x4 | x4 | %270
 x4 | x4 | x4 | x4 | x4 | x4 | x4 | x4 | x4 | x4 | x[K:treble] x3 | x4 | x4 | x4 |[K:bass] x4 | %285
 x4 | x4 | x4 | x4 | x4 | x4 |[K:treble] x4 | x4 | x4 | x4 |[K:bass] x4 | x4 | x4 | x4 | x4 | x4 | %301
 x4 | x[K:treble] x3 | x4 | x4 | x3[K:bass] x | x4 | x4 | x4 | x4 | x4 | x4 | x4 | x4 | x4 | x4 | %316
 x4 | x4 | x4 | x4 | x4 | x4 | x4 | x4 | x4 | x4 | x4 | x4 | x4 | x4 | x4 | x4 | x4 | x4 | x4 | %335
 x4 | x4 | x4 | x4 | x4 | x4 | x4 | x4 | x4 | x4 | x4 |[K:treble] x4 | x4 | x4 | x4 | x4 | x4 | %352
 x4 | x4 | x4 | x4 | x4 | x4 |[K:bass] x4 | x4 |[K:treble] x4 | x4 | x4 | x4 | x4 | x4 | x4 | x4 | %368
 x4 | x4 | x4 | x4 | x4 | x4 | x[K:bass] x3 | x4 | x4 | x4 | x4 | x4 | x4 | x4 | x4 | x4 | x4 | %385
 x4 | x4 | x4 | x4 | x4 | x4 | x4 | x4 | x4 | x4 | x4 | x4 | x4 | x4 | x4 | x4 | x4 | x4 | x4 | %404
 x4 | x4 | x4 | x4 |] %408
V:6
 x6 | x6 | x6 | GG^F G2 x | x6 | x6 | x3 (C D2) | x6 | x6 | x6 | x6 | x6 | x6 | x6 | x6 | %15
 x2 B, !trill)!x3 | G6- | G3 G F- (3:2:4F/-!trill)!F/^F/4G/4 | x6 | x2 [GB] x3 | x6 | x6 | x6 | %23
 x55/4 | x3 | x3 | x6 | x4 |[M:2/2] x2 |: x8 | x8 | x8 | x8 | x4 D4 | C2 C3 x3 | %35
 x2 [F^GB]2- [FGB][Bd][A=c]x/A/ | ^G2 x6 | x8 | x8 | x8 | x8 | x8 | x8 | x8 | x8 | x8 | x8 | x8 | %48
 x8 | x8 | x8 | x8 | x8 | x8 | x8 | x8 | x8 | x8 | x8 | x8 | x8 | x8 | x8 | x8 | x8 | x8 | x8 | %67
 x8 | x8 | x8 | x8 | x8 | x8 | x8 | x8 | x8 |1 x8 :|2 x8 || x8 | x8 | x8 | x8 | x4[K:bass] x4 | %83
 x4[K:treble] x4 | x6[K:bass] x2 | x5[K:treble] x3 | x8 | x8 | x8 | x8 | x8 | x8 | x8 | x8 | x8 | %95
 x8 | x8 | x8 | x8 | x8 | x8 | x8 | x8 | x8 | x8 | x8 | x8 | x6[K:bass] x2 | x8 |[K:treble] x8 | %110
 x8 | x8 | x8 | x8 | x8 | x8 | x8 | x8 | x8 | x8 | x8 | x4[K:bass] x4 | x4[K:treble] x4 | %123
 x4[K:bass] x4 | x8 | x8 |[K:treble] x8 | x8 | x8 | x8 | x8 | x8 | x8 | x8 | x8 | x8 | x8 | x8 | %138
 x8 | x8 | x8 | x8 | x8 | x8 | x8 | x8 | x8 | x8 | x8 | x8 | x8 | x8 | x8 | x8 | x8 | x8 | x8 |] %157
[M:4/4] x8 | x4 | x4 | x8 | %161
 x4 !4!d/4!1!^G/4!2!A/4!1!^F/4 d/4G/4A/4F/4 e/4A/4_B/4=G/4 e/4A/4B/4G/4 | %162
 !3!_e/4=B/4c/4A/4 !4!^f/4B/4c/4A/4 !4!g/4!1!^c/4d/4_B/4!p! g/4c/4d/4B/4 | _A x x2 | x8 | %165
 x2[K:bass] x6 | x[K:treble] x7 | x8 ||[M:6/8] x6 | x6 | (Gc_B) x2 x | x6 | (GE) x4 | x6 | %174
 x5 !fermata!x/!>(! x/!>)! ||[M:2/4] x4 | x4 | x4 | x4 | x4 | x4 | x4 | x4 |[K:bass] x4 | x4 | x4 | %186
 x4 | x2[K:treble] x2 | x4 | x4 | x4 | x4 | x4 | x4 | x4 | x4 | x4 |[K:bass] x4 | x4 | x4 | %200
 x3[K:treble] x | x4 | x4 | x4 | x4 | x4 | x4 | x4 | x4 | x4 | x4 | x4 | x4 | x4 | x4 | x4 | x4 | %217
 x4 | x4 | x4 | x4 | x4 | x4 | x4 | x4 | x4 | x4 | x4 | x4 | x4 | x4 | x4 | x4 | x4 | x4 | x4 | %236
 x4 | x4 | x4 | x4 | x4 | x4 | x4 | x4 | x4 | x4 | x4 | x4 | x4 | x4 | x4 | x4 | x4 | x4 | x4 | %255
 x4 | x4 | x4 | x4 | x4 | x4 | x4 | x4 | _A4 | G4 | F4 | _E2 x2 | x4 | x4 | x4 | x4 | x4 | x4 | %273
 x4 | x4 | x4 | x4 | x4 | x4 | x4 | x4 | x4 | x4 | x4 |[K:bass] x4 | x4 | x4 | x4 | %288
 x2[K:treble] x2 | x4 | x4 | x4 | x4 | x4 | x4 | x4 | x4 | x4 |[K:bass] x4 | x4 | x4 | %301
 x3[K:treble] x | x4 | x4 | x4 | x4 | x4 | x4 | x4 | x4 | x4 | x4 | x4 | x4 | x4 | x4 | x4 | x4 | %318
 x4 | x4 | x4 | x4 | x4 | x4 | x4 | x4 | x4 | x4 | x4 | x4 | x4 | x4 | x4 | x4 | x4 | x4 | x4 | %337
 x4 | x4 | x4 | x4 | x4 | x4 | x4 | x4 | x4 | x4 | x4 | x4 | x4 | x4 | x4 | x4 | x4 | x4 | x4 | %356
 x4 | x4 | _D2 (_A_G/F/) | _E2 (_B_A/_G/) | x2 !1!_A/!2!c/!1!_d/!3!_e/ | _d2 x2 | x4 | x4 | x4 | %365
 x4 | z2 (_A/=G/)A | x4 | x4 | x4 | x4 | x4 | x4 | x4 | z (A/G/) (G/F/).F | x4 | x4 | x4 | x4 | %379
 x4 | x4 | x4 | x4 | x4 | x4 | x4 | x4 | x4 | x4 | x4 | x4 | x4 | x4 | x4 | x4 | x4 | x4 | %397
[K:bass] x4 | [E,G,]2 G,[K:treble] x | x4 | x4 | x4 | x4 |[K:bass] x4 | x4 |[K:treble] x4 | x4 | %407
 x4 |] %408
V:7
 x6 | x6 | x6 | x6 | x6 | x6 | x3 G/E/ x2 | x6 | x6 | x6 | x6 | x6 | x6 | x6 | x6 | x6 | x6 | x6 | %18
 x6 | x6 | x6 | x6 | x6 | x55/4 | x3 | x3 | x6 | x4 |[M:2/2] x2 |: x8 | x8 | x8 | x8 | x8 | x8 | %35
 x8 | x8 | x8 | x8 | x8 | x8 | x8 | x8 | x8 | x8 | x8 | x8 | x8 | x8 | x8 | x8 | x8 | x8 | x8 | %54
 x8 | x8 | x8 | x8 | x8 | x8 | x8 | x8 | x8 | x8 | x8 | x8 | x8 | x8 | x8 | x8 | x8 | x8 | x8 | %73
 x8 | x8 | x8 |1 x8 :|2 x8 || x8 | x8 | x8 | x8 | x4[K:bass] x4 | x4[K:treble] x4 | x6[K:bass] x2 | %85
 x5[K:treble] x3 | x8 | x8 | x8 | x8 | x8 | x8 | x8 | x8 | x8 | x8 | x8 | x8 | x8 | x8 | x8 | x8 | %102
 x8 | x8 | x8 | x8 | x8 | x6[K:bass] x2 | x8 |[K:treble] x8 | x8 | x8 | x8 | x8 | x8 | x8 | x8 | %117
 x8 | x8 | x8 | x8 | x4[K:bass] x4 | x4[K:treble] x4 | x4[K:bass] x4 | x8 | x8 |[K:treble] x8 | %127
 x8 | x8 | x8 | x8 | x8 | x8 | x8 | x8 | x8 | x8 | x8 | x8 | x8 | x8 | x8 | x8 | x8 | x8 | x8 | %146
 x8 | x8 | x8 | x8 | x8 | x8 | x8 | x8 | x8 | x8 | x8 |][M:4/4] x8 | x4 | x4 | x8 | x8 | x4 | x4 | %164
 x8 | x2[K:bass] x6 | x[K:treble] x7 | x8 ||[M:6/8] x6 | x6 | x6 | x6 | x6 | x6 | x6 ||[M:2/4] x4 | %176
 x4 | x4 | x4 | x4 | x4 | x4 | x4 |[K:bass] x4 | x4 | x4 | x4 | x2[K:treble] x2 | x4 | x4 | x4 | %191
 x4 | x4 | x4 | x4 | x4 | x4 |[K:bass] x4 | x4 | x4 | x3[K:treble] x | x4 | x4 | x4 | x4 | x4 | %206
 x4 | x4 | x4 | x4 | x4 | x4 | x4 | x4 | x4 | x4 | x4 | x4 | x4 | x4 | x4 | x4 | x4 | x4 | x4 | %225
 x4 | x4 | x4 | x4 | x4 | x4 | x4 | x4 | x4 | x4 | x4 | x4 | x4 | x4 | x4 | x4 | x4 | x4 | x4 | %244
 x4 | x4 | x4 | x4 | x4 | x4 | x4 | x4 | x4 | x4 | x4 | x4 | x4 | x4 | x4 | x4 | x4 | x4 | x4 | %263
 x4 | x4 | x4 | x4 | x4 | x4 | x4 | x4 | x4 | x4 | x4 | x4 | x4 | x4 | x4 | x4 | x4 | x4 | x4 | %282
 x4 | x4 |[K:bass] x4 | x4 | x4 | x4 | x2[K:treble] x2 | x4 | x4 | x4 | x4 | x4 | x4 | x4 | x4 | %297
 x4 |[K:bass] x4 | x4 | x4 | x3[K:treble] x | x4 | x4 | x4 | x4 | x4 | x4 | x4 | x4 | x4 | x4 | %312
 x4 | x4 | x4 | x4 | x4 | x4 | x4 | x4 | x4 | x4 | x4 | x4 | x4 | x4 | x4 | x4 | x4 | x4 | x4 | %331
 x4 | x4 | x4 | x4 | x4 | x4 | x4 | x4 | x4 | x4 | x4 | x4 | x4 | x4 | x4 | x4 | x4 | x4 | x4 | %350
 x4 | x4 | x4 | x4 | x4 | x4 | x4 | x4 | x4 | x4 | x4 | x4 | x4 | x4 | x4 | x4 | x4 | x4 | x4 | %369
 x4 | x4 | x4 | x4 | x4 | x4 | x4 | x4 | x4 | x4 | x4 | x4 | x4 | x4 | x4 | x4 | x4 | x4 | x4 | %388
 x4 | x4 | x4 | x4 | x4 | x4 | x4 | x4 | x4 |[K:bass] x4 | x3[K:treble] x | x4 | x4 | x4 | x4 | %403
[K:bass] x4 | x4 |[K:treble] x4 | x4 | x4 |] %408
V:8
 x6 | x6 | x6 | x6 | x6 | x6 | x6 | x6 | x6 | x6 | x6 | x6 | x6 | x6 | x4 A,/^F,/ z | x6 | x6 | %17
 x6 | x6 | x6 | x6 | x6 | x6 | x55/4 | x3 | x3 | x6 | x4 |[M:2/2] x2 |: x8 | x8 | x8 | x8 | x8 | %34
 x8 | x8 | x8 | x8 | x8 | x8 | x8 | x8 | x8 | x8 | x8 | x8 | x8 | x8 | x8 | x8 | x8 | x8 | x8 | %53
 x8 | x8 | x8 | x8 | x8 | x8 | x8 | x8 | x8 | x8 | x8 | x8 | x8 | x8 | x8 | x8 | x8 | x8 | x8 | %72
 x8 | x8 | x8 | x8 |1 x8 :|2 x8 || x8 | x8 | x8 | x8 | x8 | x8 | x8 | x8 | x8 | x8 | x8 | x8 | x8 | %91
 x8 | x8 | x8 | x8 | x6[K:treble] x2 | x8 | x8 | x8 | x11/2[K:bass] x5/2 | x8 | x8 | x8 | x8 | x8 | %105
 x8 | x8 | x8 | x8 | x8 | x8 | x8 | x8 | x6 ^CA, | x6[K:treble] x2 | x6[K:bass] x2 | x8 | x8 | x8 | %119
 x8 | x8 | x8 | x8 | x8 | x8 | x8 | x8 | x8 | x8 | x8 | x8 | x8 | x8 | x8 | x8 | x8 | x8 | x8 | %138
 x8 | x8 | x8 | x8 | x8 | x8 | x8 | x8 | x8 |[K:treble] x8 | x8 | x8 | x8 | x8 | x8 | x8 | %154
[K:bass] x8 | x8 | x8 |][M:4/4] x8 |[K:treble] x4 | x3[K:bass] x | x8 | x8 | x4 | x4 | x8 | x8 | %166
 x8 | x8 ||[M:6/8][K:treble] x4[K:bass] x2 | x6 | x6 | x6 | x6 | x6 | x6 ||[M:2/4] x4 | x4 | %177
 x3[K:treble] x | x4 | x4 | x4 | x4 | x4 |[K:bass] x4 | x4 | x4 | x4 | x4 | x4 | x4 | %190
[K:treble] x4 | x4 | x4 | x4 | x3[K:bass] x | x4 | x4 | x4 | x4 | x4 | x4 | x[K:treble] x3 | x4 | %203
 x4 | x[K:bass] x3 | x4 | x4 | x4 | x4 | x4 | x4 |[K:treble] x4 | x3[K:bass] x | x4 | x4 | x4 | %216
 x4 | x4 | x4 | x4 | x4 | x4 | x4 | x4 | x4 | x4 | x4 | x4 | x4 | x4 | x4 | x4 | x4 | x4 | x4 | %235
 x4 | x4 |[K:treble] x4 | x4 | x4 | x4 | x4 | x4 | x4 | x4 | x4 | x4 | x4 | x4 | x4 | x4 | x4 | %252
 x4 | x4 | x4 |[K:bass] x4 | x4 | x4 | x4 | x4 | x4 | x4 | x4 | x4 | x4 | x4 | x4 | x4 | x4 | x4 | %270
 x4 | x4 | x4 | x4 | x4 | x4 | x4 | x4 | x4 | x4 | x[K:treble] x3 | x4 | x4 | x4 |[K:bass] x4 | %285
 x4 | x4 | x4 | x4 | x4 | x4 |[K:treble] x4 | x4 | x4 | x4 |[K:bass] x4 | x4 | x4 | x4 | x4 | x4 | %301
 x4 | x[K:treble] x3 | x4 | x4 | x3[K:bass] x | x4 | x4 | x4 | x4 | x4 | x4 | x4 | x4 | x4 | x4 | %316
 x4 | x4 | x4 | x4 | x4 | x4 | x4 | x4 | x4 | x4 | x4 | x4 | x4 | x4 | x4 | x4 | x4 | x4 | x4 | %335
 x4 | x4 | x4 | x4 | x4 | x4 | x4 | x4 | x4 | x4 | x4 |[K:treble] x4 | x4 | x4 | x4 | x4 | x4 | %352
 x4 | x4 | x4 | x4 | x4 | x4 |[K:bass] x4 | x4 |[K:treble] x4 | x4 | x4 | x4 | x4 | x4 | x4 | x4 | %368
 x4 | x4 | x4 | x4 | x4 | x4 | x[K:bass] x3 | x4 | x4 | x4 | x4 | x4 | x4 | x4 | x4 | x4 | x4 | %385
 x4 | x4 | x4 | x4 | x4 | x4 | x4 | x4 | x4 | x4 | x4 | x4 | x4 | x4 | x4 | x4 | x4 | x4 | x4 | %404
 x4 | x4 | x4 | x4 |] %408

